Icons/Standard/RotateAngleAbsolute.svg

<svg xmlns="http://www.w3.org/2000/svg" xml:space="preserve" fill-rule="evenodd" stroke-linejoin="round" stroke-miterlimit="2" clip-rule="evenodd" viewBox="0 0 64 64">
  <g id="Layer1" fill="#f4f4f4">
    <path d="M33.832 3.621c0-.527-.123-.953-.275-.953h-3.114c-.152 0-.275.426-.275.953v10.762c0 .523.123.949.275.949h3.114c.152 0 .275-.426.275-.949V3.621Z"/>
    <path d="M33.832 49.621c0-.527-.123-.953-.275-.953h-3.114c-.152 0-.275.426-.275.953v10.762c0 .523.123.949.275.949h3.114c.152 0 .275-.426.275-.949V49.621Z"/>
    <path d="M58.832 26.517c0-.527-.123-.953-.275-.953h-3.114c-.152 0-.275.426-.275.953v10.762c0 .523.123.949.275.949h3.114c.152 0 .275-.426.275-.949V26.517Z"/>
    <path d="M8.832 26.517c0-.527-.123-.953-.275-.953H5.443c-.152 0-.275.426-.275.953v10.762c0 .523.123.949.275.949h3.114c.152 0 .275-.426.275-.949V26.517Z"/>
    <path d="M16.832 9.953c0-.527-.123-.953-.275-.953h-3.114c-.152 0-.275.426-.275.953v10.762c0 .523.123.949.275.949h3.114c.152 0 .275-.426.275-.949V9.953Z"/>
    <path d="M16.832 43.289c0-.527-.123-.953-.275-.953h-3.114c-.152 0-.275.426-.275.953v10.762c0 .523.123.949.275.949h3.114c.152 0 .275-.426.275-.949V43.289Z"/>
    <path d="M50.832 43.289c0-.527-.123-.953-.275-.953h-3.114c-.152 0-.275.426-.275.953v10.762c0 .523.123.949.275.949h3.114c.152 0 .275-.426.275-.949V43.289Z"/>
    <path d="M50.832 9.953c0-.527-.123-.953-.275-.953h-3.114c-.152 0-.275.426-.275.953v10.762c0 .523.123.949.275.949h3.114c.152 0 .275-.426.275-.949V9.953Z"/>
  </g>
</svg>

<?xml version="1.0" encoding="UTF-8" standalone="no"?>
<!DOCTYPE svg PUBLIC "-//W3C//DTD SVG 1.1//EN" "http://www.w3.org/Graphics/SVG/1.1/DTD/svg11.dtd">
<svg width="100%" height="100%" viewBox="0 0 64 64" version="1.1" xmlns="http://www.w3.org/2000/svg" xmlns:xlink="http://www.w3.org/1999/xlink" xml:space="preserve" xmlns:serif="http://www.serif.com/" style="fill-rule:evenodd;clip-rule:evenodd;stroke-linejoin:round;stroke-miterlimit:2;">
    <g id="Layer1">
        <path d="M32,6.896C45.798,6.896 57,18.098 57,31.896C57,45.694 45.798,56.896 32,56.896C18.202,56.896 7,45.694 7,31.896C7,18.098 18.202,6.896 32,6.896ZM32,9.982C44.095,9.982 53.914,19.801 53.914,31.896C53.914,43.991 44.095,53.81 32,53.81C19.905,53.81 10.086,43.991 10.086,31.896C10.086,19.801 19.905,9.982 32,9.982Z" style="fill:#f3f4f4;"/>
        <path d="M33.832,3.621C33.832,3.094 33.709,2.668 33.557,2.668L30.443,2.668C30.291,2.668 30.168,3.094 30.168,3.621L30.168,14.383C30.168,14.906 30.291,15.332 30.443,15.332L33.557,15.332C33.709,15.332 33.832,14.906 33.832,14.383L33.832,3.621Z" style="fill:#acabab;"/>
        <path d="M33.832,49.621C33.832,49.094 33.709,48.668 33.557,48.668L30.443,48.668C30.291,48.668 30.168,49.094 30.168,49.621L30.168,60.383C30.168,60.906 30.291,61.332 30.443,61.332L33.557,61.332C33.709,61.332 33.832,60.906 33.832,60.383L33.832,49.621Z" style="fill:#acabab;"/>
        <path d="M58.832,26.517C58.832,25.99 58.709,25.564 58.557,25.564L55.443,25.564C55.291,25.564 55.168,25.99 55.168,26.517L55.168,37.279C55.168,37.802 55.291,38.228 55.443,38.228L58.557,38.228C58.709,38.228 58.832,37.802 58.832,37.279L58.832,26.517Z" style="fill:#acabab;"/>
        <path d="M8.832,26.517C8.832,25.99 8.709,25.564 8.557,25.564L5.443,25.564C5.291,25.564 5.168,25.99 5.168,26.517L5.168,37.279C5.168,37.802 5.291,38.228 5.443,38.228L8.557,38.228C8.709,38.228 8.832,37.802 8.832,37.279L8.832,26.517Z" style="fill:#acabab;"/>
        <path d="M16.832,9.953C16.832,9.426 16.709,9 16.557,9L13.443,9C13.291,9 13.168,9.426 13.168,9.953L13.168,20.715C13.168,21.238 13.291,21.664 13.443,21.664L16.557,21.664C16.709,21.664 16.832,21.238 16.832,20.715L16.832,9.953Z" style="fill:#acabab;"/>
        <path d="M16.832,43.289C16.832,42.762 16.709,42.336 16.557,42.336L13.443,42.336C13.291,42.336 13.168,42.762 13.168,43.289L13.168,54.051C13.168,54.574 13.291,55 13.443,55L16.557,55C16.709,55 16.832,54.574 16.832,54.051L16.832,43.289Z" style="fill:#acabab;"/>
        <path d="M50.832,43.289C50.832,42.762 50.709,42.336 50.557,42.336L47.443,42.336C47.291,42.336 47.168,42.762 47.168,43.289L47.168,54.051C47.168,54.574 47.291,55 47.443,55L50.557,55C50.709,55 50.832,54.574 50.832,54.051L50.832,43.289Z" style="fill:#acabab;"/>
        <path d="M50.832,9.953C50.832,9.426 50.709,9 50.557,9L47.443,9C47.291,9 47.168,9.426 47.168,9.953L47.168,20.715C47.168,21.238 47.291,21.664 47.443,21.664L50.557,21.664C50.709,21.664 50.832,21.238 50.832,20.715L50.832,9.953Z" style="fill:#acabab;"/>
    </g>
</svg>
